P3
8 8
255
36 87 166  36 87 166  236 72 66  236 72 66  36 87 166  36 87 166  236 72 66  236 72 66
36 87 166  36 87 166  236 72 66  236 72 66  36 87 166  36 87 166  236 72 66  236 72 66
236 72 66  236 72 66  36 87 166  36 87 166  236 72 66  236 72 66  36 87 166  36 87 166
236 72 66  236 72 66  36 87 166  36 87 166  236 72 66  236 72 66  36 87 166  36 87 166
36 87 166  36 87 166  236 72 66  236 72 66  36 87 166  36 87 166  236 72 66  236 72 66
36 87 166  36 87 166  236 72 66  236 72 66  36 87 166  36 87 166  236 72 66  236 72 66
236 72 66  236 72 66  36 87 166  36 87 166  236 72 66  236 72 66  36 87 166  36 87 166
236 72 66  236 72 66  36 87 166  36 87 166  236 72 66  236 72 66  36 87 166  36 87 166
